Adwaita++-Light/panel/16/weather-overcast.svg

<svg height="16" width="16" xmlns="http://www.w3.org/2000/svg">
  <path d="m8 1c-2.0711 0-3.8347 1.2679-4.5938 3.0625-1.9278.2866-3.4062 1.9299-3.4062 3.9375 0 2.209 1.7909 4 4 4h.4062c.4539-.801 1.241-1.427 2.125-1.687.6198-1.323 1.9748-2.339 3.4688-2.313 1.908-.031 3.582 1.485 3.875 3.344.143.045.269.091.406.156 1.031-.609 1.719-1.716 1.719-3 0-1.7965-1.351-3.2687-3.094-3.4688-.454-2.2933-2.479-4.0312-4.906-4.0312zm2 8c-1.312 0-2.405.858-2.812 2.031-1.2313.156-2.188 1.196-2.188 2.469 0 1.381 1.1193 2.5 2.5 2.5h5.5c1.105 0 2-.895 2-2s-.895-2-2-2c0-1.657-1.343-3-3-3z" fill="#444"/>
</svg>

<svg xmlns="http://www.w3.org/2000/svg" width="16" height="16" version="1.1">
 <defs>
  <style id="current-color-scheme" type="text/css">
   .ColorScheme-Text { color:#444444; } .ColorScheme-Highlight { color:#4285f4; }
  </style>
 </defs>
 <path style="fill:currentColor" class="ColorScheme-Text" d="M 8,1 C 5.9289,1 4.1653,2.2679 3.4062,4.0625 1.4784,4.3491 0,5.9924 0,8 0,10.209 1.7909,12 4,12 H 4.4062 C 4.8601,11.199 5.6472,10.573 6.5312,10.313 7.151,8.99 8.506,7.974 10,8 11.908,7.969 13.582,9.485 13.875,11.344 14.018,11.389 14.144,11.435 14.281,11.5 15.312,10.891 16,9.784 16,8.5 16,6.7035 14.649,5.2313 12.906,5.0312 12.452,2.7379 10.427,1 8,1 Z M 10,9 C 8.688,9 7.595,9.858 7.188,11.031 5.9567,11.187 5,12.227 5,13.5 5,14.881 6.1193,16 7.5,16 H 13 C 14.105,16 15,15.105 15,14 15,12.895 14.105,12 13,12 13,10.343 11.657,9 10,9 Z"/>
</svg>
